svg/color/litt.svg

<svg xmlns="http://www.w3.org/2000/svg" width="261" height="254" viewBox="0 0 261 254"><path fill="#06b6cd" fill-rule="evenodd" d="M89 70.665c-1.375.288-5.816 2.052-9.868 3.919-13.637 6.283-25.677 21.793-30.65 39.482-3.231 11.49-3.274 21.446-.148 34.068 5.589 22.56 20.338 40.997 41.063 51.331 23.774 11.854 52.103 12.864 74.103 2.641 21.099-9.803 37.343-27.555 46.647-50.977 4.9-12.334 7.245-36.533 3.749-38.693-.543-.336-3.78 1.19-7.192 3.391-12.002 7.743-19.984 9.495-30.74 6.747-11.047-2.822-18.428-8.934-34.166-28.288-15.338-18.862-22.756-23.247-40.298-23.819-5.5-.179-11.125-.09-12.5.198m-3.5 15.201c-13.88 6.321-18.146 25.616-8.303 37.557 4.779 5.797 10.005 8.027 18.881 8.054 6.713.02 8.138-.323 12.474-3.003 9.113-5.635 13.701-17.97 10.444-28.078-1.772-5.497-7.611-12.317-12.415-14.499-5.428-2.465-15.703-2.481-21.081-.031"/><path fill="#f4f4f4" fill-rule="evenodd" d="M0 127.004v127.003l130.75-.253 130.75-.254.254-126.75L262.008 0H0zm.485.496c0 69.85.119 98.278.265 63.172.146-35.105.146-92.255 0-127C.604 28.928.485 57.65.485 127.5M89 70.665c-1.375.288-5.816 2.052-9.868 3.919-13.637 6.283-25.677 21.793-30.65 39.482-3.231 11.49-3.274 21.446-.148 34.068 5.589 22.56 20.338 40.997 41.063 51.331 23.774 11.854 52.103 12.864 74.103 2.641 21.099-9.803 37.343-27.555 46.647-50.977 4.9-12.334 7.245-36.533 3.749-38.693-.543-.336-3.78 1.19-7.192 3.391-12.002 7.743-19.984 9.495-30.74 6.747-11.047-2.822-18.428-8.934-34.166-28.288-15.338-18.862-22.756-23.247-40.298-23.819-5.5-.179-11.125-.09-12.5.198m-3.5 15.201c-13.88 6.321-18.146 25.616-8.303 37.557 4.779 5.797 10.005 8.027 18.881 8.054 6.713.02 8.138-.323 12.474-3.003 9.113-5.635 13.701-17.97 10.444-28.078-1.772-5.497-7.611-12.317-12.415-14.499-5.428-2.465-15.703-2.481-21.081-.031"/></svg>

<svg xmlns="http://www.w3.org/2000/svg" width="261" height="254" viewBox="0 0 261 254" version="1.1"><path d="M 89 70.665 C 87.625 70.953, 83.184 72.717, 79.132 74.584 C 65.495 80.867, 53.455 96.377, 48.482 114.066 C 45.251 125.556, 45.208 135.512, 48.334 148.134 C 53.923 170.694, 68.672 189.131, 89.397 199.465 C 113.171 211.319, 141.500 212.329, 163.500 202.106 C 184.599 192.303, 200.843 174.551, 210.147 151.129 C 215.047 138.795, 217.392 114.596, 213.896 112.436 C 213.353 112.100, 210.116 113.626, 206.704 115.827 C 194.702 123.570, 186.720 125.322, 175.964 122.574 C 164.917 119.752, 157.536 113.640, 141.798 94.286 C 126.460 75.424, 119.042 71.039, 101.500 70.467 C 96 70.288, 90.375 70.377, 89 70.665 M 85.500 85.866 C 71.620 92.187, 67.354 111.482, 77.197 123.423 C 81.976 129.220, 87.202 131.450, 96.078 131.477 C 102.791 131.497, 104.216 131.154, 108.552 128.474 C 117.665 122.839, 122.253 110.504, 118.996 100.396 C 117.224 94.899, 111.385 88.079, 106.581 85.897 C 101.153 83.432, 90.878 83.416, 85.500 85.866" stroke="none" fill="#06b6cd" fill-rule="evenodd"/><path d="M -0 127.004 L -0 254.007 130.750 253.754 L 261.500 253.500 261.754 126.750 L 262.008 -0 131.004 -0 L 0 0 -0 127.004 M 0.485 127.500 C 0.485 197.350, 0.604 225.778, 0.750 190.672 C 0.896 155.567, 0.896 98.417, 0.750 63.672 C 0.604 28.928, 0.485 57.650, 0.485 127.500 M 89 70.665 C 87.625 70.953, 83.184 72.717, 79.132 74.584 C 65.495 80.867, 53.455 96.377, 48.482 114.066 C 45.251 125.556, 45.208 135.512, 48.334 148.134 C 53.923 170.694, 68.672 189.131, 89.397 199.465 C 113.171 211.319, 141.500 212.329, 163.500 202.106 C 184.599 192.303, 200.843 174.551, 210.147 151.129 C 215.047 138.795, 217.392 114.596, 213.896 112.436 C 213.353 112.100, 210.116 113.626, 206.704 115.827 C 194.702 123.570, 186.720 125.322, 175.964 122.574 C 164.917 119.752, 157.536 113.640, 141.798 94.286 C 126.460 75.424, 119.042 71.039, 101.500 70.467 C 96 70.288, 90.375 70.377, 89 70.665 M 85.500 85.866 C 71.620 92.187, 67.354 111.482, 77.197 123.423 C 81.976 129.220, 87.202 131.450, 96.078 131.477 C 102.791 131.497, 104.216 131.154, 108.552 128.474 C 117.665 122.839, 122.253 110.504, 118.996 100.396 C 117.224 94.899, 111.385 88.079, 106.581 85.897 C 101.153 83.432, 90.878 83.416, 85.500 85.866" stroke="none" fill="#f4f4f4" fill-rule="evenodd"/></svg>
